X:1
T:Pargolett'è cole
T:Bartolomeo Mutiis Conte di Cesana
T:Source : Misoche a uno, doi e tre voci---Venetia---Herede di Angelo Gardano---1613. Editor : André Vierendeels (05/11/16).
T:Pargolett'è colei
T:©
T:©
T:©
C:Bartolomeo Mutiis
C:Conte di Cesana
Z:©
%%score [ 1 2 ] 3
L:1/8
Q:1/4=120
M:4/4
K:F
V:1 treble nm="Soprano 1" snm="S 1"
V:2 treble nm="Soprano 2" snm="S 2"
V:3 bass nm="MusicXML Part"
V:1
 z2 AB c4- | c2 BA G4 | G4 z GAB | c3 B A3 B/A/ | G2 A2 G4 | F8 :: z FGA B4- | B2 G2 ^F2 F2 | %8
w: Par- go- lett'|_ è co- le-|i ch'ac- cend' i|de- * * * *|* sir mie-|i,|e par- go- lett'|_ è'A- mo- re,|
 z GFE D E/F/ G/A/B/c/ | d4- d c/B/ A/G/F/E/ | ^F2 G2 G2 F2 | G8 :: z4 c2 c2 | c6 d_e | =B4 B4 | %15
w: che mi fa- ett' _ _ _ _ _ _|_ _ _ _ _ _ _ _|* il co- *|re,|ma nell'|a- ni- ma|sen- to,|
 z4 G2 G2 | GA/G/ A/G/A/B/ c>d B>c | A8 | z4 A2 A2 | AB/A/ B/A/B/c/ d>_e c>d | =B8 | z4 c4- | %22
w: e gran|fo- * * * * * * * * * *|co,|e gran|pia- * * * * * * * * * *|ga,|e|
 c4 B4- | B4 A4 | G8 | F8 |] %26
w: _ gran|_ tor-|men-|to.|
V:2
 z2 FG A4- | A2 GF E4 | E4 z EFG | A3 G F3 G/F/ | E2 F2 F2 E2 | F8 :: z DEF G4- | G2 _E2 D2 D2 | %8
w: Par- go- lett'|_ è co- le-|i ch'ac- cend' i|de- * * * *|* sir mie- *|i,|e par- go- lett'|_ è'A- mo- re,|
 z4 z GFE | DE/F/ G/A/B/c/ d3 c/B/ | A2 B/A/B/G/ A4 | G8 :: z4 A2 A2 | A6 Bc | G4 G4 | z4 E2 E2 | %16
w: che mi fa-|ett'- * * * * * * * * *|* il _ _ _ co-|re,|ma nell'|a- ni- ma|sen- to,|e gran|
 EF/E/ F/E/F/G/ A>B G>A | ^F8 | z4 ^F2 F2 | ^FG/F/ G/F/G/A/ B>c A>B | G8 | z4 A4- | A4 G4- | %23
w: fo- * * * * * * * * * *|co,|e gran|pia- * * * * * * * * * *|ga,|e|_ gran|
 G4 F4 | F4 E4 | F8 |] %26
w: _ tor-|men- *|to.|
V:3
"^BC" F,4 F,,2 G,,2 | A,,2 B,,2 C,4 | C,4 C,4 | F,,8 | C,8 | F,,8 :: B,,4 G,,2 A,,2 | %7
"^#" B,,2 C,2 D,4 | G,,8 | G,,8 |"^#" D,8 | G,,8 :: F,,8 | F,,8 |"^-natural" G,,8 | C,8 | %16
 C,4 A,,4 | D,8 | D,8 | D,4 G,,4 | G,,8 | A,,8 |"^7           6" B,,8 |"^7             6" C,8 | %24
"^5" C,8 | F,,8 |] %26

